assets/luts/redthread_book.cube
TITLE "Red Thread Book"
LUT_3D_SIZE 4
0.0100 0.0000 0.0000
0.0100 0.0000 0.3133
0.0100 0.0000 0.6267
0.0100 0.0000 0.9400
0.0100 0.3300 0.0000
0.0100 0.3300 0.3133
0.0100 0.3300 0.6267
0.0100 0.3300 0.9400
0.0100 0.6600 0.0000
0.0100 0.6600 0.3133
0.0100 0.6600 0.6267
0.0100 0.6600 0.9400
0.0100 0.9900 0.0000
0.0100 0.9900 0.3133
0.0100 0.9900 0.6267
0.0100 0.9900 0.9400
0.3500 0.0000 0.0000
0.3500 0.0000 0.3133
0.3500 0.0000 0.6267
0.3500 0.0000 0.9400
0.3500 0.3300 0.0000
0.3500 0.3300 0.3133
0.3500 0.3300 0.6267
0.3500 0.3300 0.9400
0.3500 0.6600 0.0000
0.3500 0.6600 0.3133
0.3500 0.6600 0.6267
0.3500 0.6600 0.9400
0.3500 0.9900 0.0000
0.3500 0.9900 0.3133
0.3500 0.9900 0.6267
0.3500 0.9900 0.9400
0.6900 0.0000 0.0000
0.6900 0.0000 0.3133
0.6900 0.0000 0.6267
0.6900 0.0000 0.9400
0.6900 0.3300 0.0000
0.6900 0.3300 0.3133
0.6900 0.3300 0.6267
0.6900 0.3300 0.9400
0.6900 0.6600 0.0000
0.6900 0.6600 0.3133
0.6900 0.6600 0.6267
0.6900 0.6600 0.9400
0.6900 0.9900 0.0000
0.6900 0.9900 0.3133
0.6900 0.9900 0.6267
0.6900 0.9900 0.9400
1.0000 0.0000 0.0000
1.0000 0.0000 0.3133
1.0000 0.0000 0.6267
1.0000 0.0000 0.9400
1.0000 0.3300 0.0000
1.0000 0.3300 0.3133
1.0000 0.3300 0.6267
1.0000 0.3300 0.9400
1.0000 0.6600 0.0000
1.0000 0.6600 0.3133
1.0000 0.6600 0.6267
1.0000 0.6600 0.9400
1.0000 0.9900 0.0000
1.0000 0.9900 0.3133
1.0000 0.9900 0.6267
1.0000 0.9900 0.9400
